X: 290
P: Longways for as many as will
M: 6/4
L: 1/4
K: Am
c2c c>de | dBG G>AB | c2A A>Bc | B>A ^G/F/ E2B |\
c2c c>de | dBG G>AB | c>BA B^G2 | A3- A2 :|
|: ^f |\
g2g g>fe | dBG G2g | a2b c'>ba | gee e2^f |\
g2g g>fe | dBG G2B | c>BA B^G2 | A3- A2 :|

